assets/ios/swift/Icons.xcassets/host.imageset/host.svg

<svg width="24" height="24" viewBox="0 0 24 24" fill="none" xmlns="http://www.w3.org/2000/svg">
<path d="M16.7125 6.7125C16.5208 6.90417 16.2833 7 16 7C15.7167 7 15.4792 6.90417 15.2875 6.7125C15.0958 6.52083 15 6.28333 15 6C15 5.71667 15.0958 5.47917 15.2875 5.2875C15.4792 5.09583 15.7167 5 16 5C16.2833 5 16.5208 5.09583 16.7125 5.2875C16.9042 5.47917 17 5.71667 17 6C17 6.28333 16.9042 6.52083 16.7125 6.7125Z" fill="black"/>
<path fill-rule="evenodd" clip-rule="evenodd" d="M6 2C4.89543 2 4 2.89543 4 4V20C4 21.1046 4.89543 22 6 22H18C19.1046 22 20 21.1046 20 20V4C20 2.89543 19.1046 2 18 2H6ZM18 4H6V8H18V4ZM6 12V10H18V12H6ZM6 14V16H18V14H6ZM6 20V18H18V20H6Z" fill="black"/>
</svg>

<svg xmlns="http://www.w3.org/2000/svg" width="24" height="24" fill="black" viewBox="0 0 24 24">
  <path d="M16.712 6.713A.968.968 0 0 1 16 7a.968.968 0 0 1-.713-.287A.967.967 0 0 1 15 6c0-.283.096-.52.287-.713A.968.968 0 0 1 16 5a.97.97 0 0 1 .712.287c.192.192.288.43.288.713s-.096.52-.288.713Z"/>
  <path fill-rule="evenodd" d="M6 2a2 2 0 0 0-2 2v16a2 2 0 0 0 2 2h12a2 2 0 0 0 2-2V4a2 2 0 0 0-2-2H6Zm12 2H6v4h12V4ZM6 12v-2h12v2H6Zm0 2v2h12v-2H6Zm0 6v-2h12v2H6Z" clip-rule="evenodd"/>
</svg>
